X:1
T:Title
%%score 1 2
L:1/8
Q:1/4=78
M:2/4
K:D
V:1 treble nm="Grand Piano, Soprano"
V:2 bass nm="Choir Pad, Two Little Hands, 1878"
V:1
 DF F/E/D | EF EF | AA A/B/A | FE EE- | EF F/E/D | EF EF | AA A/B/A | FE ED- | D[DF] [FA][Fd]- | %9
w: By~William~Augustine~Ogden * * * *|||||||||
 [Fd]G [GB][Gd]- | [Gd][FA] [GB][FA] | [DF][CE] [CE][CE] | [EG][DF] [FA][Fd]- | [Fd]G [GB][Gd]- | %14
w: |||||
 [Gd][Gc] [GA][CG] | [CE] D3- | D4 |] %17
w: |||
V:2
 z [D,,D,]3- | [D,,D,]4- | [D,,D,]4- | [D,,D,] E,,2 A,,- | A,, [D,,D,]3- | [D,,D,]4- | [D,,D,]4- | %7
 [D,,D,] A,,2 D,- | D,[D,A,] [D,D][D,A,]- | [D,A,][G,B,] [G,D][G,B,]- | [G,B,][D,D] [D,D][D,D] | %11
 [D,A,][A,,A,] [A,,A,][A,,A,] | [A,,A,][D,A,] [D,D][D,A,]- | [D,A,][G,B,] [G,D][G,B,]- | %14
 [G,B,]A, [A,C][A,,A,] | [A,,G,] [D,F,]3- | [D,F,]4 |] %17

